X:123
M:C
L:1/8
K:F
defd B2 c2 | Gc=Bd c4 :: c | f c2 fd B2d | g d2g ec2 e | a f2 ag e2g |
fdgf {f}e2 dc | BcdB G2 cB | ABcA F2c2 | defd gfeg | afge f4 :|

